!! 00026] TT[TB
!! Eigene Aufnahme, Guangzhou, 5.5.87
!!!OTL: Jiao nong changge nong jiu chang
!!!ARE: Guangdong, Baisha
!! Ethnic Group: Li
!! II, 402
!!!SCT: C0937
!!!YEM: Copyright 1995, estate of Helmut Schaffrath.
**kern
*ICvox
*Ivox
*M2/2
*k[b-e-a-]
*E-:
{8cc
8ee-
4f
8cc
8ee-
4cc
=1
4cc
4f
2b-}
=2
{2f
8cc
8ee-
4ff
=3
2ff
2b-}
=4
{4cc
4f
4g
4f
=5
4ee-
8cc
8ee-
4.ff
8ee-}
=6
{8cc
8ee-
4ff
8ee-
8ff
4cc
=7
1b-}
=8
{4f
4f
8cc
8ee-
4cc
=9
4cc
4f
2b-}
=10
{2f
8cc
8ee-
4ff
=11
2ff
2b-}
=12
{4cc
4f
4g
4f
=13
4ee-
8cc
8ee-
4.ff
8ee-}
=14
{8cc
8ee-
4ff
8ee-
8ff
4cc
=15
1b-}
==
!!!AGN: Xiaodiao. biaoda aiqing]
!! Die Saengerin Lei Huilan ist Angehoerige der Zhuang Minderheit und
!!    studiert an der Guangzhouer Musikhochschule.
!!    Aufgenommen am 5.5.87
!!!ONB: ESAC (Essen Associative Code) Database: CHINA
!!!AMT: simple duple
!!!AIN: vox
!!!EED: Helmut Schaffrath
!!!EEV: 1.0
*-
